X: 1
T: Doctor McHardy (Banchory)
C: J.Scott Skinner
R: strathspey
Z: 2015 John Chambers <jc:trillian.mit.edu>
B: J.S.Skinner "Harp & Claymore" p.80
M: C
L: 1/16
K: D
A2 |\
"D"F3E D3E FA3 "A"A3c | "Bm"d3c B3A FB3 "A"~B3c |\
"G"d3c {c}B3A "D"A3D F3D |1 "G"B,3D "D"A,3D "A"C~E3E2 :|2 "Bm"EDCB, "A"A,A3 "D"FD3D2 ||
(g2 |\
"Bm"f3)(c d3)(^A "Em"B3)(F G3)(f | g3)(^d e3)(=d "A"c)A3 A3(g |\
"Bm"f3)(c d3)(^A "Em"B3)(F G3)F | "A7"EDCB, A,A3 "D"FD3D3 ||
(g |\
"Bm"f3)(c d3)(^A "B7"B3)(F "Em"G3)(f | g3)(^d "E7"e3)(=d "A"c)A3 A3c |\
"D"{c}d2D2 A2D2 "G"BAGF "D"AD3 | "A"EDCB, A,A3 "D"FD3D2 |]
